Icons/com_cloudmagic_mail.svg

<svg viewBox="0 0 48 48" xmlns:xlink="http://www.w3.org/1999/xlink">
 <defs>
  <linearGradient id="0">
   <stop stop-opacity="0"/>
   <stop offset="1"/>
  </linearGradient>
  <linearGradient xlink:href="#0" id="1" gradientUnits="userSpaceOnUse" gradientTransform="translate(4e-7,-48)" y1="47" x2="0" y2="1"/>
  <clipPath id="2">
   <g transform="translate(0,-1004.3622)">
    <rect rx="4" y="1005.36" x="1" height="46" width="46" fill="#1890d0"/>
   </g>
  </clipPath>
  <clipPath id="3">
   <g transform="translate(0,-1004.3622)">
    <rect rx="4" y="1005.36" x="1" height="46" width="46" fill="#1890d0"/>
   </g>
  </clipPath>
 </defs>
 <g>
  <g transform="translate(0,-1004.3622)">
   <path d="m 5,1006.3622 c -2.216,0 -4,1.784 -4,4 l 0,37.25 c 0,2.216 1.784,4 4,4 l 38,0 c 2.216,0 4,-1.784 4,-4 l 0,-37.25 c 0,-2.216 -1.784,-4 -4,-4 l -38,0 z m -4,41.5 0,0.5 c 0,2.216 1.784,4 4,4 l 38,0 c 2.216,0 4,-1.784 4,-4 l 0,-0.5 c 0,2.216 -1.784,4 -4,4 l -38,0 c -2.216,0 -4,-1.784 -4,-4 z" opacity="0.02"/>
   <path d="m 1,1047.6122 0,0.25 c 0,2.216 1.784,4 4,4 l 38,0 c 2.216,0 4,-1.784 4,-4 l 0,-0.25 c 0,2.216 -1.784,4 -4,4 l -38,0 c -2.216,0 -4,-1.784 -4,-4 z" opacity="0.05"/>
   <rect width="46" height="46" x="1" y="1005.61" rx="4" opacity="0.1"/>
  </g>
 </g>
 <g>
  <g transform="translate(0,-1004.3622)">
   <rect rx="4" y="1005.36" x="1" height="46" width="46" fill="#e2e2e2"/>
  </g>
 </g>
 <g>
  <rect transform="scale(1,-1)" width="46" height="46" x="1" y="-46.998" rx="4" opacity="0.1" fill="url(#1)"/>
 </g>
 <g>
  <g clip-path="url(#2)">
   <g opacity="0.1">
    <g>
     <path d="M 12.996094 13 L 35 13 C 36.105469 13 37 13.894531 37 15 L 37 33.003906 C 37 34.105469 36.105469 35 35 35 L 12.996094 35 C 11.894531 35 11 34.105469 11 33.003906 L 11 15 C 11 13.894531 11.894531 13 12.996094 13 Z M 12.996094 13 "/>
     <path d="M 24 21 L 12 34 L 11.59375 34.40625 C 11.957031 34.769531 12.445312 35 13 35 L 35 35 C 35.554688 35 36.042969 34.769531 36.40625 34.40625 L 36 34 Z M 24 21 "/>
     <path d="M 12 14 L 24 29 L 36 14 Z M 12 14 " fill-opacity="0.2" id="4"/>
     <path d="M 24 27 L 12 14 L 11.59375 13.59375 C 11.957031 13.230469 12.445312 13 13 13 L 35 13 C 35.554688 13 36.042969 13.230469 36.40625 13.59375 L 36 14 Z M 24 27 "/>
    </g>
   </g>
  </g>
 </g>
 <g>
  <g clip-path="url(#3)">
   <g transform="translate(0,-1)">
    <g>
     <path d="M 12.996094 13 L 35 13 C 36.105469 13 37 13.894531 37 15 L 37 33.003906 C 37 34.105469 36.105469 35 35 35 L 12.996094 35 C 11.894531 35 11 34.105469 11 33.003906 L 11 15 C 11 13.894531 11.894531 13 12.996094 13 Z M 12.996094 13 " fill="#6eabdd"/>
     <path d="M 24 21 L 12 34 L 11.59375 34.40625 C 11.957031 34.769531 12.445312 35 13 35 L 35 35 C 35.554688 35 36.042969 34.769531 36.40625 34.40625 L 36 34 Z M 24 21 " fill="#7988c5"/>
     <use xlink:href="#4"/>
     <path d="M 24 27 L 12 14 L 11.59375 13.59375 C 11.957031 13.230469 12.445312 13 13 13 L 35 13 C 35.554688 13 36.042969 13.230469 36.40625 13.59375 L 36 14 Z M 24 27 " fill="#86d7eb"/>
    </g>
   </g>
  </g>
 </g>
 <g>
  <g transform="translate(0,-1004.3622)">
   <path d="m 1,1043.3622 0,4 c 0,2.216 1.784,4 4,4 l 38,0 c 2.216,0 4,-1.784 4,-4 l 0,-4 c 0,2.216 -1.784,4 -4,4 l -38,0 c -2.216,0 -4,-1.784 -4,-4 z" opacity="0.1"/>
  </g>
 </g>
</svg>

<svg viewBox="0 0 48 48" xmlns:xlink="http://www.w3.org/1999/xlink"><defs><linearGradient id="linearGradient3764" x1="1" x2="47" gradientUnits="userSpaceOnUse" gradientTransform="translate(-48.000001,0.00221467)"><stop stop-color="#d8d8d8" stop-opacity="1"/><stop offset="1" stop-color="#e2e2e2" stop-opacity="1"/></linearGradient><clipPath id="clipPath-526157181"><g transform="translate(0,-1004.3622)"><rect rx="4" y="1005.36" x="1" height="46" width="46" fill="#1890d0"/></g></clipPath><clipPath id="clipPath-538838558"><g transform="translate(0,-1004.3622)"><rect rx="4" y="1005.36" x="1" height="46" width="46" fill="#1890d0"/></g></clipPath></defs><g><path d="m 1 43 l 0 0.25 c 0 2.216 1.784 4 4 4 l 38 0 c 2.216 0 4 -1.784 4 -4 l 0 -0.25 c 0 2.216 -1.784 4 -4 4 l -38 0 c -2.216 0 -4 -1.784 -4 -4 z m 0 0.5 l 0 0.5 c 0 2.216 1.784 4 4 4 l 38 0 c 2.216 0 4 -1.784 4 -4 l 0 -0.5 c 0 2.216 -1.784 4 -4 4 l -38 0 c -2.216 0 -4 -1.784 -4 -4 z" opacity="0.02"/><path d="m 1 43.25 l 0 0.25 c 0 2.216 1.784 4 4 4 l 38 0 c 2.216 0 4 -1.784 4 -4 l 0 -0.25 c 0 2.216 -1.784 4 -4 4 l -38 0 c -2.216 0 -4 -1.784 -4 -4 z" opacity="0.05"/><path d="m 1 43 l 0 0.25 c 0 2.216 1.784 4 4 4 l 38 0 c 2.216 0 4 -1.784 4 -4 l 0 -0.25 c 0 2.216 -1.784 4 -4 4 l -38 0 c -2.216 0 -4 -1.784 -4 -4 z" opacity="0.1"/></g><g><rect width="46" height="46" x="-47" y="1" rx="4" transform="matrix(0,-1,1,0,0,0)" fill="url(#linearGradient3764)" fill-opacity="1"/></g><g><g clip-path="url(#clipPath-526157181)"><g opacity="0.1"><!-- color: #e2e2e2 --><g><path d="m 12.996 13 l 22 0 c 1.105 0 2 0.895 2 2 l 0 18 c 0 1.102 -0.895 1.996 -2 1.996 l -22 0 c -1.102 0 -1.996 -0.895 -1.996 -1.996 l 0 -18 c 0 -1.105 0.895 -2 1.996 -2 m 0 0" fill="#000"/><path d="m 24 21 l -12 13 l -0.406 0.406 c 0.363 0.363 0.852 0.594 1.406 0.594 l 22 0 c 0.555 0 1.043 -0.23 1.406 -0.594 l -0.406 -0.406 m -12 -13" fill="#000"/><path d="m 12 14 l 12 15 l 12 -15 m -24 0" fill-opacity="0.2" id="SVGCleanerId_0"/><path d="m 24 27 l -12 -13 l -0.406 -0.406 c 0.363 -0.363 0.852 -0.594 1.406 -0.594 l 22 0 c 0.555 0 1.043 0.23 1.406 0.594 l -0.406 0.406 m -12 13" fill="#000"/></g></g></g></g><g><g clip-path="url(#clipPath-538838558)"><g transform="translate(0,-1)"><!-- color: #e2e2e2 --><g><path d="m 12.996 13 l 22 0 c 1.105 0 2 0.895 2 2 l 0 18 c 0 1.102 -0.895 1.996 -2 1.996 l -22 0 c -1.102 0 -1.996 -0.895 -1.996 -1.996 l 0 -18 c 0 -1.105 0.895 -2 1.996 -2 m 0 0" fill="#6eabdd"/><path d="m 24 21 l -12 13 l -0.406 0.406 c 0.363 0.363 0.852 0.594 1.406 0.594 l 22 0 c 0.555 0 1.043 -0.23 1.406 -0.594 l -0.406 -0.406 m -12 -13" fill="#7988c5"/><use xlink:href="#SVGCleanerId_0"/><path d="m 24 27 l -12 -13 l -0.406 -0.406 c 0.363 -0.363 0.852 -0.594 1.406 -0.594 l 22 0 c 0.555 0 1.043 0.23 1.406 0.594 l -0.406 0.406 m -12 13" fill="#86d7eb"/></g></g></g></g><g><g transform="translate(0,-1004.3622)"><path d="m 1 1043.36 0 4 c 0 2.216 1.784 4 4 4 l 38 0 c 2.216 0 4 -1.784 4 -4 l 0 -4 c 0 2.216 -1.784 4 -4 4 l -38 0 c -2.216 0 -4 -1.784 -4 -4 z" opacity="0.1"/></g></g></svg>
